svg/color/ino.svg

<?xml version="1.0" encoding="UTF-8" ?>
<!DOCTYPE svg PUBLIC "-//W3C//DTD SVG 1.1//EN" "http://www.w3.org/Graphics/SVG/1.1/DTD/svg11.dtd">
<svg width="250pt" height="250pt" viewBox="0 0 250 250" version="1.1" xmlns="http://www.w3.org/2000/svg">
<g id="#fdfdfeff">
<path fill="#fdfdfe" opacity="1.00" d=" M 0.00 0.00 L 250.00 0.00 L 250.00 250.00 L 0.00 250.00 L 0.00 0.00 M 113.08 1.15 C 88.08 3.27 63.97 13.63 44.83 29.78 C 22.52 48.47 7.07 75.22 2.29 103.95 C 0.23 116.18 0.30 128.68 1.54 140.98 C 5.27 171.35 20.94 199.97 44.24 219.75 C 65.25 237.70 92.37 248.53 120.04 249.31 C 123.34 249.22 126.64 249.15 129.94 249.30 C 169.81 248.31 208.19 226.09 229.59 192.54 C 242.07 173.14 249.45 150.17 249.22 127.03 C 250.11 105.20 244.31 83.29 233.69 64.26 C 219.70 39.17 196.79 19.18 169.96 8.91 C 152.00 1.71 132.28 -0.57 113.08 1.15 Z" />
<path fill="#fdfdfe" opacity="1.00" d=" M 45.96 64.63 C 56.46 53.27 74.95 51.02 88.19 58.77 C 99.16 64.92 106.54 77.29 105.86 89.96 C 106.03 106.81 91.80 122.16 75.11 123.73 C 64.34 125.19 53.08 121.23 45.53 113.43 C 35.20 103.03 32.38 85.63 39.85 72.85 C 38.36 77.99 37.92 83.69 40.25 88.67 C 43.71 97.04 52.95 102.61 61.98 101.41 C 72.41 100.41 81.05 90.55 80.54 80.06 C 80.46 69.57 71.45 60.18 60.99 59.61 C 55.49 59.08 50.27 61.42 45.96 64.63 Z" />
<path fill="#fdfdfe" opacity="1.00" d=" M 162.37 58.46 C 175.13 51.34 192.66 53.23 203.03 63.72 C 198.63 60.84 193.37 58.98 188.05 59.70 C 177.66 60.80 169.04 70.56 169.45 81.04 C 169.47 91.20 177.97 100.37 188.03 101.41 C 197.02 102.57 206.31 97.10 209.73 88.72 C 212.05 83.74 211.66 78.04 210.16 72.89 C 218.85 87.57 213.61 108.12 199.59 117.58 C 186.19 127.41 165.86 125.77 154.32 113.76 C 147.81 107.31 143.84 98.20 144.13 88.98 C 143.83 76.43 151.40 64.35 162.37 58.46 Z" />
<path fill="#fdfdfe" opacity="1.00" d=" M 67.14 166.93 C 78.44 166.59 89.73 167.63 101.03 166.91 C 109.35 167.25 117.67 167.26 125.99 166.87 C 132.98 167.16 139.97 167.31 146.96 166.88 C 158.80 167.56 170.64 166.73 182.49 166.88 C 181.81 180.66 175.64 194.13 165.47 203.48 C 152.07 216.44 132.17 222.17 113.90 218.57 C 89.07 214.64 67.81 192.43 67.14 166.93 Z" />
</g>
<g id="#ffd200ff">
<path fill="#ffd200" opacity="1.00" d=" M 113.08 1.15 C 132.28 -0.57 152.00 1.71 169.96 8.91 C 196.79 19.18 219.70 39.17 233.69 64.26 C 244.31 83.29 250.11 105.20 249.22 127.03 C 249.45 150.17 242.07 173.14 229.59 192.54 C 208.19 226.09 169.81 248.31 129.94 249.30 C 126.64 249.15 123.34 249.22 120.04 249.31 C 92.37 248.53 65.25 237.70 44.24 219.75 C 20.94 199.97 5.27 171.35 1.54 140.98 C 0.30 128.68 0.23 116.18 2.29 103.95 C 7.07 75.22 22.52 48.47 44.83 29.78 C 63.97 13.63 88.08 3.27 113.08 1.15 M 45.96 64.63 C 43.29 66.81 41.37 69.78 39.85 72.85 C 32.38 85.63 35.20 103.03 45.53 113.43 C 53.08 121.23 64.34 125.19 75.11 123.73 C 91.80 122.16 106.03 106.81 105.86 89.96 C 106.54 77.29 99.16 64.92 88.19 58.77 C 74.95 51.02 56.46 53.27 45.96 64.63 M 162.37 58.46 C 151.40 64.35 143.83 76.43 144.13 88.98 C 143.84 98.20 147.81 107.31 154.32 113.76 C 165.86 125.77 186.19 127.41 199.59 117.58 C 213.61 108.12 218.85 87.57 210.16 72.89 C 208.48 69.38 206.16 66.08 203.03 63.72 C 192.66 53.23 175.13 51.34 162.37 58.46 M 57.38 156.42 C 55.80 157.30 55.35 159.32 55.21 160.99 C 53.87 183.76 65.57 206.81 84.72 219.19 C 103.65 232.40 129.24 234.96 150.66 226.65 C 161.48 222.93 170.73 215.71 178.30 207.25 C 189.73 194.17 195.86 176.36 193.96 158.99 C 193.43 156.35 190.37 155.69 188.08 155.84 C 147.05 155.84 106.03 155.86 65.00 155.83 C 62.46 155.87 59.83 155.65 57.38 156.42 Z" />
</g>
<g id="#7543f2ff">
<path fill="#7543f2" opacity="1.00" d=" M 45.96 64.63 C 50.27 61.42 55.49 59.08 60.99 59.61 C 71.45 60.18 80.46 69.57 80.54 80.06 C 81.05 90.55 72.41 100.41 61.98 101.41 C 52.95 102.61 43.71 97.04 40.25 88.67 C 37.92 83.69 38.36 77.99 39.85 72.85 C 41.37 69.78 43.29 66.81 45.96 64.63 Z" />
<path fill="#7543f2" opacity="1.00" d=" M 169.45 81.04 C 169.04 70.56 177.66 60.80 188.05 59.70 C 193.37 58.98 198.63 60.84 203.03 63.72 C 206.16 66.08 208.48 69.38 210.16 72.89 C 211.66 78.04 212.05 83.74 209.73 88.72 C 206.31 97.10 197.02 102.57 188.03 101.41 C 177.97 100.37 169.47 91.20 169.45 81.04 Z" />
</g>
<g id="#e8bf00ff">
<path fill="#e8bf00" opacity="1.00" d=" M 57.38 156.42 C 59.83 155.65 62.46 155.87 65.00 155.83 C 106.03 155.86 147.05 155.84 188.08 155.84 C 190.37 155.69 193.43 156.35 193.96 158.99 C 195.86 176.36 189.73 194.17 178.30 207.25 C 170.73 215.71 161.48 222.93 150.66 226.65 C 129.24 234.96 103.65 232.40 84.72 219.19 C 65.57 206.81 53.87 183.76 55.21 160.99 C 55.35 159.32 55.80 157.30 57.38 156.42 M 67.14 166.93 C 67.81 192.43 89.07 214.64 113.90 218.57 C 132.17 222.17 152.07 216.44 165.47 203.48 C 175.64 194.13 181.81 180.66 182.49 166.88 C 170.64 166.73 158.80 167.56 146.96 166.88 C 139.97 167.31 132.98 167.16 125.99 166.87 C 117.67 167.26 109.35 167.25 101.03 166.91 C 89.73 167.63 78.44 166.59 67.14 166.93 Z" />
</g>
</svg>

<?xml version="1.0" encoding="utf-8"?>
<!-- Generator: Adobe Illustrator 26.0.3, SVG Export Plug-In . SVG Version: 6.00 Build 0)  -->
<svg version="1.1" id="Layer_1" xmlns="http://www.w3.org/2000/svg" xmlns:xlink="http://www.w3.org/1999/xlink" x="0px" y="0px"
	 viewBox="0 0 250 250" style="enable-background:new 0 0 250 250;" xml:space="preserve">
<style type="text/css">
	.st0{fill:#FDFDFE;}
	.st1{fill:#FFD200;}
	.st2{fill:#7543F2;}
	.st3{fill:#E8BF00;}
</style>
<g id="_x23_fdfdfeff">
	<path class="st0" d="M46,64.6c10.5-11.4,29-13.6,42.2-5.9c11,6.1,18.3,18.5,17.7,31.2c0.2,16.8-14.1,32.2-30.8,33.8
		c-10.8,1.5-22-2.5-29.6-10.3C35.2,103,32.4,85.6,39.8,72.8c-1.5,5.1-1.9,10.8,0.4,15.8C43.7,97,53,102.6,62,101.4
		c10.4-1,19.1-10.9,18.6-21.4C80.5,69.6,71.4,60.2,61,59.6C55.5,59.1,50.3,61.4,46,64.6z"/>
	<path class="st0" d="M162.4,58.5c12.8-7.1,30.3-5.2,40.7,5.3c-4.4-2.9-9.7-4.7-15-4c-10.4,1.1-19,10.9-18.6,21.3
		c0,10.2,8.5,19.3,18.6,20.4c9,1.2,18.3-4.3,21.7-12.7c2.3-5,1.9-10.7,0.4-15.8c8.7,14.7,3.4,35.2-10.6,44.7
		c-13.4,9.8-33.7,8.2-45.3-3.8c-6.5-6.5-10.5-15.6-10.2-24.8C143.8,76.4,151.4,64.3,162.4,58.5z"/>
	<path class="st0" d="M67.1,166.9c11.3-0.3,22.6,0.7,33.9,0c8.3,0.3,16.6,0.3,25,0c7,0.3,14,0.4,21,0c11.8,0.7,23.7-0.2,35.5,0
		c-0.7,13.8-6.9,27.2-17,36.6c-13.4,13-33.3,18.7-51.6,15.1C89.1,214.6,67.8,192.4,67.1,166.9z"/>
</g>
<g id="_x23_ffd200ff">
	<path class="st1" d="M113.1,1.1C132.3-0.6,152,1.7,170,8.9c26.8,10.3,49.7,30.3,63.7,55.4c10.6,19,16.4,40.9,15.5,62.8
		c0.2,23.1-7.1,46.1-19.6,65.5c-21.4,33.6-59.8,55.8-99.6,56.8c-3.3-0.2-6.6-0.1-9.9,0c-27.7-0.8-54.8-11.6-75.8-29.6
		C20.9,200,5.3,171.4,1.5,141c-1.2-12.3-1.3-24.8,0.8-37c4.8-28.7,20.2-55.5,42.5-74.2C64,13.6,88.1,3.3,113.1,1.1 M46,64.6
		c-2.7,2.2-4.6,5.2-6.1,8.2c-7.5,12.8-4.6,30.2,5.7,40.6c7.6,7.8,18.8,11.8,29.6,10.3c16.7-1.6,30.9-16.9,30.8-33.8
		c0.7-12.7-6.7-25-17.7-31.2C74.9,51,56.5,53.3,46,64.6 M162.4,58.5c-11,5.9-18.5,18-18.2,30.5c-0.3,9.2,3.7,18.3,10.2,24.8
		c11.5,12,31.9,13.7,45.3,3.8c14-9.5,19.3-30,10.6-44.7c-1.7-3.5-4-6.8-7.1-9.2C192.7,53.2,175.1,51.3,162.4,58.5 M57.4,156.4
		c-1.6,0.9-2,2.9-2.2,4.6c-1.3,22.8,10.4,45.8,29.5,58.2c18.9,13.2,44.5,15.8,65.9,7.5c10.8-3.7,20.1-10.9,27.6-19.4
		c11.4-13.1,17.6-30.9,15.7-48.3c-0.5-2.6-3.6-3.3-5.9-3.2c-41,0-82.1,0-123.1,0C62.5,155.9,59.8,155.6,57.4,156.4z"/>
</g>
<g id="_x23_7543f2ff">
	<path class="st2" d="M46,64.6c4.3-3.2,9.5-5.5,15-5c10.5,0.6,19.5,10,19.5,20.4c0.5,10.5-8.1,20.4-18.6,21.4
		c-9,1.2-18.3-4.4-21.7-12.7c-2.3-5-1.9-10.7-0.4-15.8C41.4,69.8,43.3,66.8,46,64.6z"/>
	<path class="st2" d="M169.4,81c-0.4-10.5,8.2-20.2,18.6-21.3c5.3-0.7,10.6,1.1,15,4c3.1,2.4,5.4,5.7,7.1,9.2
		c1.5,5.2,1.9,10.8-0.4,15.8c-3.4,8.4-12.7,13.8-21.7,12.7C178,100.4,169.5,91.2,169.4,81z"/>
</g>
<g id="_x23_e8bf00ff">
	<path class="st3" d="M57.4,156.4c2.5-0.8,5.1-0.6,7.6-0.6c41,0,82.1,0,123.1,0c2.3-0.1,5.3,0.5,5.9,3.2
		c1.9,17.4-4.2,35.2-15.7,48.3c-7.6,8.5-16.8,15.7-27.6,19.4c-21.4,8.3-47,5.8-65.9-7.5c-19.2-12.4-30.9-35.4-29.5-58.2
		C55.3,159.3,55.8,157.3,57.4,156.4 M67.1,166.9c0.7,25.5,21.9,47.7,46.8,51.6c18.3,3.6,38.2-2.1,51.6-15.1
		c10.2-9.3,16.3-22.8,17-36.6c-11.9-0.2-23.7,0.7-35.5,0c-7,0.4-14,0.3-21,0c-8.3,0.4-16.6,0.4-25,0
		C89.7,167.6,78.4,166.6,67.1,166.9z"/>
</g>
</svg>
